!! 00000] TT[WS
!!!OTL: Sibao langong
!!!ARE: Asia, China, Shanxi Linxian
!! Ethnic Group: Han
!! WII, 45 (2)
!!!SCT: J0460
!!!YEM: Copyright 1995, estate of Helmut Schaffrath.
**kern
*ICvox
*Ivox
*M2/4
*k[b-]
*F:
{4f
8g
8a
=1
8g
8f
8d
8c
=2
4.cc
8ff
=3
8dd
8cc
8a
8cc
=4
8ff
4ff
8cc
=5
8dd
8cc
8a
8g
=6
4.f
8g
=7
4f
4r}
=8
{4g
4g
=9
4cc
8ff
8dd
=10
8cc
8a
4cc
=11
8g
8f
4d
=12
8b-
4b-
8g
=13
8b-
8g
8f
8d
=14
4.c
8d
=15
2c}
==
!!!AGN: Xiaodiao. Qingge
!!!ONB: ESAC (Essen Associative Code) Database: CHINA
!!!AMT: simple duple
!!!AIN: vox
!!!EED: Helmut Schaffrath
!!!EEV: 1.0
*-
